!!!COM: Music21
!!!OTL: waltz_Motto---The
!!!OMV: waltz_Motto---The
**kern
*clefG2
*k[f#c#]
*D:
*M3/4
=1
4a
=
2.ff#
=
2ee
4dd
=
2.a
=
4a
4f#
4g
=
2a
4b
=
2cc#
4dd
=
2.cc#
=
2.cc#
=
2.gg
=
2ff#
4ee
=
2.b
=
2ee
4b
=
4b
4a
4b
!!linebreak:original
=
2b
4a
=
2.f#
=
2f#
4a
=
2.ff#
=
2ee
4dd
=
2.a
=
4a
4f#
4g
=
2a
4b
=
2cc#
4dd
=
2.cc#
=
2.b
=
2ee
4b
=
2ff#
4ee
=
2ee
4b
!!linebreak:original
=
2ff#
4b
=
4cc#
4b
4cc#
=
2ff#
4ee
=
2.dd
=
2dd
4a
=
4dd
4cc#
4dd
=
4cc#
4b
4cc#
=
4b
4a
4a
=
4a
4dd
4ff#
=
4bb
4b
4b
=
4b
4cc#
4a
=
4ee
4dd
4dd
!!linebreak:original
=
4dd
4f#
4a
=
4dd
4cc#
4dd
=
4cc#
4b
4cc#
=
4b
4a
4a
=
4a
4dd
4ff#
=
4bb
4b
4b
=
4b
4cc#
4a
=
2.dd
=
2dd
4ryy
=||
*-
